X:1
T:Title
%%score ( 1 2 ) ( 3 4 ) ( 5 6 )
L:1/8
Q:1/4=120
M:6/4
K:F
V:1 treble nm="Picked Bass, Soprano Voice"
V:2 treble 
V:3 treble nm="Picked Bass, Melody"
V:4 treble 
V:5 bass nm="Picked Bass, Baritone Voice"
V:6 bass 
V:1
 A6 .A2 .A2 .A2 | A2 .G3 G A6 | A6 .c2 .c2 .c2 | c2 A2 d2 c6 | A6 .A2 .A2 .A2 | A6 z6 | %6
 A6- A2 c2 d2 | .c2 c2 B2 z6 | c6 .A2 .A2 .A2 | B2 .A2 .A2 A6- | A6 z4 A2- | A2 F4 .F2 .F2 E2- | %12
 E2 .E2 .E2 D6 | .A2 A4 .A2 .A2 c2- | c2 c2 .B2 A6- | A6 z6 | z6 c4 .A2 | .A2 A4- A2 .c2 .c2 | %18
 .c2 .c2 .c2 .c2 A4- | A2 A4 z2 .A2 .A2 | .A2 .B2 .A2 .A2 A4- | A6 z6 | z12 | z6 z2 z/ .d3/2 A2- | %24
 A2 .A2 .A2 A4 .d2 | .=B2 A4- A2 .A2 d2- | d2 .d2 .d2 ^c4 .e2 | .e6 e2 .dd d2- | d6 a4- [^fa]2 | %29
 .d2 e4 d2 e2 ^f2- | f6 z6 | z12 | z4 .d2 A4 .A>A- | A2 A4 (4:3:3d2 =B2 A4- | A4 .A2 d4 .d2 | %35
 .d2 ^c4 .e2 .e2 ^f2- | f2 ed (3:2:4z/ ^c/de- [de]6 | d2 a4 ^f2 d2 e2- | e2 d2 e2 ^f6- | f6 z6 |] %40
V:2
 x12 | x12 | x12 | x12 | x12 | z6 G6- | G6 .d6 | z6 A6- | A6 z6 | x12 | x12 | x12 | x12 | x12 | %14
 x12 | x12 | x12 | x12 | x12 | x12 | x12 | x12 | x12 | x12 | x12 | x12 | x12 | %27
 z2 ^f4- f2 z/ ^ce/- e2 | z4 d2- d6 | x12 | x12 | x12 | x12 | x12 | x12 | x12 | x12 | x12 | x12 | %39
 x12 |] %40
V:3
 z6 D4 D-[DE] | .F6 z6 | C6 z2[K:bass] A,4 | .G,4 G,2 A,6 | A,6[K:treble] .D2 .D2 .D2 | %5
 z .F3 F2- [DF]6 | D6[K:bass] z2 G,4 | G,2 .A,4 C6- | C6 .C4[K:treble] DF | z4 E2- E6 | %10
 z12[K:bass] | z12 | z12 | .D2 F2 E2 D2 F2 F2 | .E4 F2 E6- | E2 A4 F2 .D4 | z12 | %17
 z2 C4- C2 C2[K:bass] .A,2 | .F,2 .G,2 .G,2 .G,2[K:treble] C4- | C2 A,4- A,2 .D2 .D2 | %20
 .D2 .C2 .C2 .C2 D4- | D6 z6 | z12 | z6 z2 .A,2 D2- | D2 .D2 .D2 D4 .^F2 | .D2 E4- E2 .E2 ^F2- | %26
 F2 .E2 .E2 E4 .E2 | .E2 ^F4 EFEFGA- | A4 z A z4 D2 | .^F2 E4 .D2 .^C2 D2- | D6 z6 | z12 | %32
 z2 z2 z/ .A,3/2 D4 .D3/2 z/4 D/4- | D2 D4 .^F2 .D2 E2- | E4 .E2 ^F4 .F2 | z12 | %36
 z2 z2 z z/ G/- G6 | z2 ^F4- F6 | z12 | z12 |] %40
V:4
 A,6- A,2 C4 | z2 D2 .F2 E6 | z6 C4[K:bass] F,2- | F,2 B,4 z6 | x6[K:treble] x6 | D2 A,4 z2 C4- | %6
 C6[K:bass] A,4 F,2- | F,4 B,2- B,6 | A,6- A,2 A,4[K:treble] | .E2 .E4 D6- | D6 z4[K:bass] A,2- | %11
 A,2 A,4 .A,2 .A,2 G,2- | G,2 .G,2 .G,2 A,6 | x12 | z2 D4 z6 | x12 | x12 | x10[K:bass] x2 | %18
 x8[K:treble] x4 | x12 | x12 | x12 | x12 | x12 | x12 | x12 | x12 | x12 | z6 ^F6 | x12 | x12 | x12 | %32
 x12 | x12 | x12 | .^F2 E4 .E2 .E2 F2- | F2 E^FE.F A6 | .A6 D2 ^F2 E2- | E2 D2 ^C2 D6- | D6 z6 |] %40
V:5
 z6 .D,6 | .F,4 .A,2 A,6 | A,6 .F,2 .F,2 F,2 | z4 E,2- E,6 | z12 | .D,6 z6 | D,6 z2 E,2- [E,F,]E, | %7
 z2 G,2- [F,G,]E, F,6 | A,6 F,2 .D,2 D,2 | .A,,2 .A,,4 D,6- | D,6 z4 D,2- | %11
 D,2 .D,4 .D,2 .D,2 E,2- | E,2 .E,2 .E,2 D,6 | .A,2 A,4 .A,2 .A,2 F,2- | F,2 .D,2 .D,2 A,,6 | %15
 z6 z4 A,2- | A,2 F,2 .D,2 z6 | z2 F,4- F,2 .C,2 .C,2 | .C,2 .C,2 .C,2 .C,2 F,4- | %19
 F,2 D,4 z2 .D,2 .D,2 | .D,2 .A,2 .A,2 .A,2 D,4- | D,6 .D,2 D,4 | z2 ^F,2 D,2 A,4 ^C2 | %23
 z/ .=B,3/2 A,4- A,2 .A,2 D,2- | D,2 .D,2 .D,2 D,4 .^F,2 | .D,2 A,4- A,2 .A,2 =B,2- | %26
 B,2 .=B,2 z/4 B,3/4 z A,4 .A,2 | z2[K:treble] D4- D3 .=B,3 | z12[K:bass] | %29
 .G,2 A,4 .A,2 .A,2 D,2- | D,3 .D,3 D,4 ^F,2 | .D,2 A,4 ^C2 =B,2 A,2- | A,4 A,2 D,4 .D,2 | %33
 .D,2 D,4 ^F,2 .D,2 A,2- | A,4 z/ .A,3/2 =B,4 .B,2 | .=B,2 A,4 .A,2 .A,2[K:treble] D2- | %36
 D2 ^C=B,.CC D6 | z2[K:bass] D4- D6 | z12 | z12 |] %40
V:6
 .D,6 z2 A,,2- [A,,D,]2 | z2 G,4 z6 | x12 | C,2 .D,4 A,,6- | [A,,D,]6 .D,2 .D,2 .D,2 | %5
 z2 A,,2 .B,,2 C,6 | z6 .D,6 | .F,6 z6 | x12 | z4 A,,2- A,,6 | x12 | x12 | x12 | x12 | x12 | x12 | %16
 x12 | x12 | x12 | x12 | x12 | x12 | x12 | x12 | x12 | x12 | x12 | %27
 .A,6[K:treble] ^C=B, C z/ C/- [CD-]2 | D4 z .D D4[K:bass] .^F,2 | x12 | x12 | x12 | x12 | x12 | %34
 x12 | x10[K:treble] x2 | z2 z2 z/ .=B,3/2 z6 | .D6[K:bass] ^F,2 G,2 A,2- | A,2 .A,2 .A,2 D,6- | %39
 D,6 z6 |] %40

